packages/core/src/svgs/mimo.svg

<svg width="24" height="24" viewBox="0 0 24 24" fill="none" xmlns="http://www.w3.org/2000/svg">
<g clip-path="url(#clip0_31_13870)">
<path d="M0 0H24V24H0V0Z" fill="url(#paint0_linear_31_13870)"/>
<path d="M9.15406 6.85731H9.36834C9.6512 6.85731 9.87406 7.00303 9.98548 7.08874C10.1183 7.18731 10.2469 7.3116 10.3626 7.44446C10.6026 7.7016 10.8598 8.05303 11.1169 8.43017C11.4169 8.87588 11.7298 9.38588 12.0169 9.88731C12.2844 9.43144 12.5616 8.98134 12.8483 8.53731C13.1055 8.1516 13.3626 7.77874 13.6069 7.49588C13.7226 7.35874 13.8512 7.2216 13.9841 7.11017C14.0912 7.02874 14.3226 6.85731 14.6269 6.85731C14.8541 6.85731 15.0341 6.95588 15.1241 7.0116C15.2312 7.08017 15.3341 7.1616 15.4241 7.24731C15.5998 7.41874 15.7926 7.6416 15.9898 7.90303C16.3883 8.4216 16.8512 9.1416 17.3012 9.96017C17.4641 10.2516 17.6226 10.5687 17.7812 10.8902C18.3041 10.7873 18.8141 10.6587 19.2298 10.5045C19.5769 10.3673 19.9669 10.5473 20.0998 10.8987C20.2283 11.2502 20.0569 11.6445 19.7055 11.7816C19.3026 11.9316 18.8312 12.0602 18.3512 12.1673C18.8097 13.2417 19.1197 14.3735 19.2726 15.5316C19.2764 15.7011 19.2165 15.8659 19.1047 15.9934C18.9929 16.1208 18.8373 16.2017 18.6688 16.22C18.5002 16.2384 18.3309 16.1928 18.1943 16.0923C18.0578 15.9918 17.9639 15.8437 17.9312 15.6773C17.7735 14.5509 17.456 13.4527 16.9883 12.4159C16.6241 12.4716 16.2983 12.5145 16.0455 12.5487L15.8826 12.5702C15.5098 12.6216 15.1712 12.3559 15.1241 11.983C15.0996 11.8047 15.1467 11.6239 15.2551 11.4801C15.3635 11.3364 15.5244 11.2414 15.7026 11.2159L15.8441 11.1987L16.3841 11.1259L16.1183 10.6202C15.7655 9.96375 15.3659 9.33355 14.9226 8.73446C14.8112 8.59303 14.7169 8.47731 14.6312 8.38303C14.4469 8.6016 14.2198 8.91874 13.9755 9.29588C13.5255 9.9816 13.0498 10.7916 12.7026 11.3916L12.6126 11.5459C12.5476 11.6576 12.4534 11.7496 12.3402 11.8122C12.2271 11.8747 12.0991 11.9054 11.9698 11.901C11.8406 11.8966 11.715 11.8573 11.6063 11.7872C11.4976 11.7171 11.41 11.6189 11.3526 11.503C10.9457 10.7105 10.4935 9.94213 9.99834 9.2016C9.81252 8.91785 9.60927 8.6459 9.38977 8.38731C8.7212 9.00017 8.11263 9.93446 7.59406 11.0187C7.8512 11.0702 8.07406 11.1087 8.24977 11.1345C8.61834 11.1816 8.87977 11.5245 8.82834 11.9016C8.7812 12.2745 8.44263 12.5359 8.06977 12.4887C7.80406 12.4502 7.44406 12.3859 7.04977 12.3002C6.62763 13.4041 6.3147 14.5467 6.11549 15.7116C6.08803 15.8888 5.99139 16.0479 5.84676 16.154C5.70214 16.26 5.52134 16.3044 5.34406 16.2773C5.16692 16.2468 5.00884 16.148 4.90384 16.0021C4.79883 15.8562 4.75531 15.675 4.78263 15.4973C4.98383 14.3049 5.29663 13.134 5.71691 12.0002L4.36691 11.6659C4.20662 11.6087 4.07332 11.4939 3.99294 11.3439C3.91255 11.1939 3.89082 11.0194 3.93197 10.8542C3.97312 10.6891 4.07421 10.5452 4.21559 10.4504C4.35697 10.3557 4.52853 10.3169 4.69691 10.3416C5.09977 10.4445 5.6612 10.5859 6.23977 10.7187C6.90834 9.24446 7.81691 7.79588 8.98263 6.97731L9.15406 6.85303V6.85731Z" fill="white"/>
</g>
<defs>
<linearGradient id="paint0_linear_31_13870" x1="3.94714" y1="3.76714" x2="20.4771" y2="19.7914" gradientUnits="userSpaceOnUse">
<stop stop-color="#6DF1B5"/>
<stop offset="1" stop-color="#2DD8E0"/>
</linearGradient>
<clipPath id="clip0_31_13870">
<rect width="24" height="24" fill="white"/>
</clipPath>
</defs>
</svg>

<svg xmlns="http://www.w3.org/2000/svg" width="24" height="24" fill="none" viewBox="0 0 24 24"><g clip-path="url(#a)"><path fill="url(#b)" d="M0 0h24v24H0z"/><path fill="#fff" d="M9.154 6.857h.214c.283 0 .506.146.617.232.133.098.262.223.378.355.24.258.497.609.754.986.3.446.613.956.9 1.457q.401-.684.831-1.35c.257-.385.515-.758.759-1.041a3 3 0 0 1 .377-.386c.107-.081.339-.253.643-.253.227 0 .407.099.497.155.107.068.21.15.3.235.176.172.369.395.566.656.398.519.861 1.239 1.311 2.057.163.292.322.609.48.93a10 10 0 0 0 1.449-.386.67.67 0 0 1 .87.395.69.69 0 0 1-.395.883c-.402.15-.874.278-1.354.385a12.9 12.9 0 0 1 .922 3.365.677.677 0 0 1-1.342.145 12 12 0 0 0-.943-3.261c-.364.056-.69.098-.942.133l-.163.021a.674.674 0 0 1-.759-.587.68.68 0 0 1 .579-.767l.141-.017.54-.073-.266-.506a15.5 15.5 0 0 0-1.195-1.886 7 7 0 0 0-.292-.351 10 10 0 0 0-.655.913c-.45.686-.926 1.496-1.273 2.096l-.09.154a.716.716 0 0 1-1.26-.043q-.611-1.19-1.355-2.301a8 8 0 0 0-.608-.815C8.72 9 8.113 9.934 7.594 11.02c.257.051.48.09.656.115.368.048.63.39.578.768a.677.677 0 0 1-.758.587 15 15 0 0 1-1.02-.189 18 18 0 0 0-.935 3.412.677.677 0 0 1-.77.565.686.686 0 0 1-.562-.78c.2-1.192.514-2.363.934-3.497l-1.35-.334a.686.686 0 0 1 .33-1.324c.403.102.964.244 1.543.377.668-1.475 1.577-2.923 2.743-3.742l.171-.124z"/></g><defs><linearGradient id="b" x1="3.947" x2="20.477" y1="3.767" y2="19.791" gradientUnits="userSpaceOnUse"><stop stop-color="#6DF1B5"/><stop offset="1" stop-color="#2DD8E0"/></linearGradient><clipPath id="a"><path fill="#fff" d="M0 0h24v24H0z"/></clipPath></defs></svg>
